packages/design-system/src/icons/assets/ic_apple.svg

<svg width="24" height="24" viewBox="0 0 24 24" fill="none" xmlns="http://www.w3.org/2000/svg">
<path d="M17.0492 19.28C16.0692 20.23 14.9992 20.08 13.9692 19.63C12.8792 19.17 11.8792 19.15 10.7292 19.63C9.28919 20.25 8.52919 20.07 7.66919 19.28C2.78919 14.25 3.50919 6.59 9.04919 6.31C10.3992 6.38 11.3392 7.05 12.1292 7.11C13.3092 6.87 14.4392 6.18 15.6992 6.27C17.2092 6.39 18.3492 6.99 19.0992 8.07C15.9792 9.94 16.7192 14.05 19.5792 15.2C19.0092 16.7 18.2692 18.19 17.0392 19.29L17.0492 19.28ZM12.0292 6.25C11.8792 4.02 13.6892 2.18 15.7692 2C16.0592 4.58 13.4292 6.5 12.0292 6.25Z" fill="#212224"/>
</svg>

<svg xmlns="http://www.w3.org/2000/svg" width="24" height="24" fill="none"><path fill="#212224" d="M17.05 19.28c-.98.95-2.05.8-3.08.35-1.09-.46-2.09-.48-3.24 0-1.44.62-2.2.44-3.06-.35C2.79 14.25 3.51 6.59 9.05 6.31c1.35.07 2.29.74 3.08.8 1.18-.24 2.31-.93 3.57-.84 1.51.12 2.65.72 3.4 1.8-3.12 1.87-2.38 5.98.48 7.13-.57 1.5-1.31 2.99-2.54 4.09zM12.03 6.25c-.15-2.23 1.66-4.07 3.74-4.25.29 2.58-2.34 4.5-3.74 4.25"/></svg>
